src/topics/icons/backerkit.svg

<svg height="249" preserveAspectRatio="xMidYMid" viewBox="0 0 256 249" width="256" xmlns="http://www.w3.org/2000/svg"><path d="m207.506245 218.148743h-87.959657l43.979828-95.694695.04128.09024.04032-.09024h.8208l27.502713 60.496944 13.470076 30.527032 2.11968 4.670719zm47.941747 23.373754-84.691818-185.0668317c-.53632-1.0694398-1.239679-1.9817595-2.384319-2.5206394v-15.6905559h40.598709v-1.2188797l-11.145917-17.7427153 11.145917-17.7423954v-1.5404796h-48.266867v54.1603059c-.91264.5587198-1.58464 1.3676796-2.0496 2.2953594l-46.022708 99.5961337-30.1209517-65.8195026c-.8255997-1.6463995-1.9247995-3.0246392-4.6758387-3.0246392h-2.7503993c-2.4723194 0-3.849919 1.3782397-4.6758388 3.0246392l-58.8607846 127.3794866-2.13023946 4.723839-8.86591769 19.186875c-1.65151956 3.571519.55167986 7.153278 4.67551878 7.153278h23.92159377l4.7180788.03136 117.7871689-.03136h99.123174c4.123839 0 6.322559-3.581439 4.671039-7.153278z" fill="#2d2e2b"/></svg>

<?xml version="1.0" encoding="UTF-8" standalone="no"?>
<svg width="256px" height="249px" viewBox="0 0 256 249" version="1.1" xmlns="http://www.w3.org/2000/svg" xmlns:xlink="http://www.w3.org/1999/xlink" preserveAspectRatio="xMidYMid">
    <g>
        <path d="M207.506245,218.148743 L119.546588,218.148743 L163.526416,122.454048 L163.567696,122.544288 L163.608016,122.454048 L164.428816,122.454048 L191.931529,182.950992 L205.401605,213.478024 L207.521285,218.148743 L207.506245,218.148743 L207.506245,218.148743 Z M255.447992,241.522497 L170.756174,56.4556653 C170.219854,55.3862255 169.516495,54.4739058 168.371855,53.9350259 L168.371855,38.24447 L208.970564,38.24447 L208.970564,37.0255903 L197.824647,19.282875 L208.970564,1.5404796 L208.970564,0 L160.703697,0 L160.703697,54.1603059 C159.791057,54.7190257 159.119057,55.5279855 158.654097,56.4556653 L112.631389,156.051799 L82.5104373,90.2322964 C81.6848376,88.5858969 80.5856378,87.2076572 77.8345986,87.2076572 L75.0841993,87.2076572 C72.6118799,87.2076572 71.2342803,88.5858969 70.4083605,90.2322964 L11.5475759,217.611783 L9.41733644,222.335622 L0.551418754,241.522497 C-1.10010081,245.094016 1.10309861,248.675775 5.22693753,248.675775 L29.1485313,248.675775 L33.8666101,248.707135 L151.653779,248.675775 L250.776953,248.675775 C254.900792,248.675775 257.099512,245.094336 255.447992,241.522497 L255.447992,241.522497 Z" fill="#2D2E2B"></path>
    </g>
</svg>
